icons/evolvere-flat-vivid-sunken-dark-fallback/places/64/folder-git.svg

<?xml version="1.0" encoding="UTF-8" standalone="no"?>
<!-- Created with Inkscape (http://www.inkscape.org/) -->

<svg
   xmlns:dc="http://purl.org/dc/elements/1.1/"
   xmlns:cc="http://creativecommons.org/ns#"
   xmlns:rdf="http://www.w3.org/1999/02/22-rdf-syntax-ns#"
   xmlns:svg="http://www.w3.org/2000/svg"
   xmlns="http://www.w3.org/2000/svg"
   xmlns:sodipodi="http://sodipodi.sourceforge.net/DTD/sodipodi-0.dtd"
   xmlns:inkscape="http://www.inkscape.org/namespaces/inkscape"
   id="svg13094"
   height="64"
   width="64"
   version="1.1"
   inkscape:version="0.48.4 r9939"
   sodipodi:docname="folder-git.svg"
   inkscape:export-filename="folder.png"
   inkscape:export-xdpi="90"
   inkscape:export-ydpi="90">
  <sodipodi:namedview
     pagecolor="#ffffff"
     bordercolor="#666666"
     borderopacity="1"
     objecttolerance="10"
     gridtolerance="10"
     guidetolerance="10"
     inkscape:pageopacity="0"
     inkscape:pageshadow="2"
     inkscape:window-width="1920"
     inkscape:window-height="1022"
     id="namedview46"
     showgrid="true"
     inkscape:snap-bbox="true"
     inkscape:bbox-paths="true"
     inkscape:bbox-nodes="true"
     inkscape:snap-bbox-edge-midpoints="true"
     inkscape:snap-bbox-midpoints="true"
     inkscape:snap-nodes="true"
     inkscape:object-paths="true"
     inkscape:snap-intersection-paths="true"
     inkscape:object-nodes="true"
     inkscape:snap-smooth-nodes="true"
     inkscape:snap-midpoints="true"
     inkscape:snap-object-midpoints="true"
     inkscape:snap-center="true"
     fit-margin-top="0"
     fit-margin-left="0"
     fit-margin-right="0"
     fit-margin-bottom="0"
     inkscape:zoom="10.429825"
     inkscape:cx="30.559707"
     inkscape:cy="31.158926"
     inkscape:window-x="-5"
     inkscape:window-y="23"
     inkscape:window-maximized="1"
     inkscape:current-layer="svg13094"
     showguides="true"
     inkscape:guide-bbox="true"
     inkscape:snap-page="true"
     inkscape:snap-global="true">
    <inkscape:grid
       type="xygrid"
       id="grid3023"
       empspacing="5"
       visible="true"
       enabled="true"
       snapvisiblegridlinesonly="true"
       originx="-80px"
       originy="-75px" />
  </sodipodi:namedview>
  <defs
     id="defs11" />
  <metadata
     id="metadata13099">
    <rdf:RDF>
      <cc:Work
         rdf:about="">
        <dc:format>image/svg+xml</dc:format>
        <dc:type
           rdf:resource="http://purl.org/dc/dcmitype/StillImage" />
        <dc:title />
      </cc:Work>
    </rdf:RDF>
  </metadata>
  <path
     style="color:#000000;fill:#da8c1f;fill-opacity:1;fill-rule:nonzero;stroke:none;marker:none;visibility:visible;display:inline;overflow:visible;enable-background:accumulate"
     d="m 3,6 -10e-8,58.000001 L 60,64 64,60 64,1 63,0 37,0 32,4.9999999 4,5 z"
     id="path3833-98"
     inkscape:connector-curvature="0"
     sodipodi:nodetypes="cccccccccc" />
  <path
     sodipodi:nodetypes="cccccccc"
     id="path3802-94"
     d="m 58,13 0,51 2,0 4,-4 0,-59 -1,-1 0,18 z"
     inkscape:connector-curvature="0"
     style="fill:#8c3d00;fill-opacity:0.33273704;stroke:none;stroke-width:1;marker:none" />
  <path
     sodipodi:nodetypes="ccccc"
     d="m 7,13 51,0 0,31 -51,0 z"
     id="path3920-52"
     inkscape:connector-curvature="0"
     style="fill:#e2e2e2;fill-opacity:1;fill-rule:nonzero" />
  <path
     style="color:#000000;fill:#3e4959;fill-opacity:0.22968199;fill-rule:nonzero;stroke-width:1;stroke-linecap:butt;stroke-linejoin:miter;stroke-miterlimit:4;stroke-opacity:1;stroke-dasharray:none;stroke-dashoffset:0;marker:none;visibility:visible;display:inline;overflow:visible;enable-background:accumulate"
     d="m 30,13 4,4 2,0 -4,-4 z"
     id="path3982-40"
     inkscape:connector-curvature="0"
     sodipodi:nodetypes="ccccc" />
  <path
     id="path3916-08"
     d="m 0,13 0,50 1,1 59,0 1,-1 0,-45 -1,-1 -26,1e-6 -5,-5 L 1,12 z"
     inkscape:connector-curvature="0"
     style="color:#000000;fill:#f4ae3f;fill-opacity:1;fill-rule:nonzero;stroke-width:1;stroke-linecap:butt;stroke-linejoin:miter;stroke-miterlimit:4;stroke-opacity:1;stroke-dasharray:none;stroke-dashoffset:0;marker:none;visibility:visible;display:inline;overflow:visible;enable-background:accumulate"
     sodipodi:nodetypes="ccccccccccc"
     inkscape:export-xdpi="90"
     inkscape:export-ydpi="90" />
  <path
     style="font-size:medium;font-style:normal;font-variant:normal;font-weight:normal;font-stretch:normal;text-indent:0;text-align:start;text-decoration:none;line-height:normal;letter-spacing:normal;word-spacing:normal;text-transform:none;direction:ltr;block-progression:tb;writing-mode:lr-tb;text-anchor:start;baseline-shift:baseline;color:#000000;fill:#b54f00;fill-opacity:0.38628157000000002;fill-rule:nonzero;stroke:none;stroke-width:1;marker:none;visibility:visible;display:inline;overflow:visible;enable-background:accumulate;font-family:Sans;-inkscape-font-specification:Sans"
     d="M 0 14.5625 L 0 17.4375 L 12.3125 29.75 C 12.132341 30.135401 12 30.546477 12 31 C 12 32.301321 12.841652 33.39699 14 33.8125 L 14 48.1875 C 12.841652 48.60301 12 49.698679 12 51 C 12 52.656854 13.343146 54 15 54 C 16.656854 54 18 52.656854 18 51 C 18 49.698679 17.158348 48.60301 16 48.1875 L 16 33.8125 C 16.087224 33.781212 16.166729 33.726426 16.25 33.6875 L 23.28125 40.71875 L 23.34375 40.65625 C 23.136907 41.063603 23 41.511862 23 42 C 23 43.656854 24.343146 45 26 45 C 27.656854 45 29 43.656854 29 42 C 29 40.343146 27.656854 39 26 39 C 25.511862 39 25.063603 39.136907 24.65625 39.34375 L 24.71875 39.28125 L 17.6875 32.25 C 17.867659 31.864599 18 31.453523 18 31 C 18 29.343146 16.656854 28 15 28 C 14.546477 28 14.135401 28.132341 13.75 28.3125 L 0 14.5625 z "
     id="path2995" />
</svg>

<svg xmlns="http://www.w3.org/2000/svg" viewBox="0 0 64 64"><path d="m3 6v58h57l4-4v-59l-1-1h-26l-5 5h-28z" fill="#da8c1f" color="#000"/><path d="m58 13v51h2l4-4v-59l-1-1v18z" fill="#8c3d00" fill-opacity=".333"/><path d="m7 13h51v31h-51z" fill="#e2e2e2"/><g color="#000"><path d="m30 13l4 4h2l-4-4z" fill="#3e4959" fill-opacity=".23"/><path d="m0 13v50l1 1h59l1-1v-45l-1-1h-26l-5-5h-28z" fill="#f4ae3f"/><path d="m0 14.563v2.875l12.313 12.313c-.18.385-.313.796-.313 1.25 0 1.301.842 2.397 2 2.813v14.375c-1.158.416-2 1.511-2 2.813 0 1.657 1.343 3 3 3 1.657 0 3-1.343 3-3 0-1.301-.842-2.397-2-2.813v-14.375c.087-.031.167-.086.25-.125l7.03 7.03.063-.063c-.207.407-.344.856-.344 1.344 0 1.657 1.343 3 3 3 1.657 0 3-1.343 3-3 0-1.657-1.343-3-3-3-.488 0-.936.137-1.344.344l.063-.063-7.03-7.03c.18-.385.313-.796.313-1.25 0-1.657-1.343-3-3-3-.454 0-.865.132-1.25.313l-13.75-13.75" fill-opacity=".386" fill="#b54f00"/></g></svg>
